; generated by Slic3r 1.2.9 on 2016-12-01 at 17:48:56

; external perimeters extrusion width = 0.50mm
; perimeters extrusion width = 0.72mm
; infill extrusion width = 0.72mm
; solid infill extrusion width = 0.72mm
; top infill extrusion width = 0.72mm

M107
M104 S200 ; set temperature
G28 ; home all axes
G1 Z5 F5000 ; lift nozzle

M109 S200 ; wait for temperature to be reached
G21 ; set units to millimeters
G90 ; use absolute coordinates
M82 ; use absolute distances for extrusion
G92 E0
G1 Z0.500 F7800.000
G1 E-2.00000 F2400.00000
G92 E0
G1 X38.237 Y10.391 F7800.000
G1 E2.00000 F2400.00000
G1 X38.344 Y10.082 E2.02065 F1800.000
G1 X39.034 Y8.649 E2.12108
G1 X39.345 Y8.158 E2.15778
G1 X40.747 Y6.558 E2.29213
G1 X41.460 Y5.962 E2.35081
G1 X43.559 Y4.760 E2.50353
G1 X43.928 Y4.628 E2.52828
G1 X44.936 Y4.352 E2.59427
G1 X49.066 Y3.553 E2.85989
G1 X65.547 Y0.852 E3.91447
G1 X66.024 Y0.804 E3.94472
G1 X68.481 Y0.643 E4.10023
G1 X69.378 Y0.613 E4.15690
G1 X139.522 Y-0.292 E8.58653
G1 X141.403 Y-0.278 E8.70534
G1 X141.944 Y-0.252 E8.73951 F1800.000
G1 X143.401 Y-0.126 E8.83187
G1 X144.798 Y0.064 E8.92087
G1 X147.113 Y0.452 E9.06909
G1 X152.658 Y1.450 E9.42490
G1 X154.726 Y1.849 E9.55786
G1 X155.757 Y2.111 E9.62506
G1 X157.367 Y2.599 E9.73130
G1 X158.203 Y2.874 E9.78683
G1 X158.807 Y3.104 E9.82766
G1 X159.318 Y3.327 E9.86285
G1 X159.837 Y3.575 E9.89920
G1 X160.412 Y3.893 E9.94070
G1 X161.518 Y4.577 E10.02281
G1 X162.705 Y5.504 E10.11790
G1 X163.724 Y6.500 E10.20784
G1 X164.670 Y7.649 E10.30182
G1 X165.012 Y8.176 E10.34156
G1 X165.748 Y9.407 E10.43207
G1 X166.156 Y10.208 E10.48889
G1 X166.426 Y10.836 E10.53202
G1 X166.781 Y11.893 E10.60242
G1 X167.154 Y13.393 E10.70002
G1 X167.275 Y13.987 E10.73833
G1 X167.435 Y15.017 E10.80415
G1 X167.609 Y16.373 E10.89045
G1 X167.749 Y18.000 E10.99360
G1 X167.881 Y19.865 E11.11166
G1 X168.784 Y34.200 E12.01864
G1 X170.335 Y61.718 E13.75904
G1 X170.606 Y67.882 E14.14865
G1 X170.740 Y75.784 E14.64768
G1 X170.736 Y127.039 E17.88421
G1 X170.588 Y134.272 E18.34103
G1 X170.459 Y136.767 E18.49881
G1 X170.198 Y140.683 E18.74664
G1 X169.801 Y145.676 E19.06292
G1 X169.153 Y152.953 E19.52421
G1 X166.446 Y182.280 E21.38398
G1 X166.174 Y184.780 E21.54277
G1 X166.076 Y185.409 E21.58297
G1 X165.812 Y186.709 E21.66674
G1 X165.530 Y187.916 E21.74502
G1 X165.263 Y188.809 E21.80387
G1 X164.762 Y190.041 E21.88780
G1 X164.113 Y191.278 E21.97605
G1 X163.504 Y192.309 E22.05164
G1 X162.338 Y193.753 E22.16882
G1 X161.665 Y194.389 E22.22733
G1 X161.050 Y194.904 E22.27797
G1 X160.265 Y195.490 E22.33985
G1 X159.774 Y195.823 E22.37730
G1 X159.423 Y196.040 E22.40334
G1 X158.634 Y196.460 E22.45981
G1 X156.880 Y197.237 E22.58096
G1 X155.987 Y197.615 E22.64218
G1 X155.432 Y197.822 E22.67960
G1 X154.263 Y198.191 E22.75698
G1 X153.050 Y198.503 E22.83607
G1 X150.796 Y199.028 E22.98221
G1 X148.879 Y199.411 E23.10567
G1 X147.711 Y199.614 E23.18052
G1 X144.751 Y200.011 E23.36912
G1 X141.937 Y200.263 E23.54748
G1 X141.359 Y200.288 E23.58406
G1 X137.050 Y200.289 E23.85610
G1 X68.251 Y199.387 E28.20087
G1 X67.607 Y199.349 E28.24157
G1 X65.395 Y199.100 E28.38216
G1 X46.897 Y196.014 E29.56637
G1 X45.035 Y195.649 E29.68617
G1 X44.508 Y195.523 E29.72038
G1 X44.086 Y195.398 E29.74817
G1 X43.425 Y195.180 E29.79212
G1 X42.433 Y194.767 E29.85999
G1 X40.761 Y193.633 E29.98752
G1 X39.920 Y192.860 E30.05971
G1 X38.085 Y190.083 E30.26986
G1 X37.958 Y189.724 E30.29391
G1 X37.686 Y188.722 E30.35948
G1 X29.384 Y145.377 E33.14628
G1 X29.261 Y144.105 E33.22694
G1 X29.257 Y142.976 E33.29826
G1 X29.361 Y56.524 E38.75732
G1 X29.452 Y55.417 E38.82743
G1 X29.786 Y53.402 E38.95643
G1 X37.985 Y11.328 E41.66319
G1 X38.217 Y10.463 E41.71973
G1 E39.71973 F2400.00000
G92 E0
G1 X155.212 Y180.150 F7800.000
G1 E2.00000 F2400.00000
G1 X156.211 Y180.154 E2.06313 F1800.000
G1 X157.064 Y180.595 E2.12372
G1 X157.467 Y180.972 E2.15857
G1 X157.882 Y181.782 E2.21608
G1 X157.888 Y182.758 E2.27771
G1 X157.471 Y183.589 E2.33643
G1 X157.011 Y184.023 E2.37636
G1 X156.198 Y184.411 E2.43320
G1 X155.210 Y184.412 E2.49561
G1 X154.362 Y183.991 E2.55542
G1 X153.963 Y183.632 E2.58930
G1 X153.514 Y182.772 E2.65059
G1 X153.516 Y181.780 E2.71324
G1 X153.942 Y180.975 E2.77072
G1 X154.394 Y180.541 E2.81032
G1 X154.971 Y180.262 E2.85077
G1 X155.144 Y180.182 E2.86280 F1800.000
G1 X155.398 Y179.686 F7800.000
G1 E0.86280 F2400.00000
G92 E0
G1 X153.549 Y180.649 F7800.000
G1 X152.005 Y181.241 F7800.000
G1 X149.395 Y182.661 F7800.000
G1 X149.878 Y181.464 F7800.000
G1 X150.149 Y180.798 F7800.000
G1 X150.153 Y179.043 F7800.000
G1 X145.230 Y174.548 F7800.000
G1 E2.00000 F2400.00000
G1 X146.079 Y175.379 E2.07505 F1800.000
G1 X146.104 Y175.780 E2.10043
G1 X151.329 Y175.757 E2.43035
G1 X151.340 Y175.384 E2.45397
G1 X152.188 Y174.548 E2.52915
G1 X153.238 Y174.547 E2.59545
G1 X154.120 Y175.391 E2.67253
G1 X154.118 Y178.794 E2.88744
G1 X153.258 Y179.643 E2.96375
G1 X152.203 Y179.648 E3.03034
G1 X151.360 Y178.831 E3.10450
G1 X151.326 Y178.546 E3.12263
G1 X146.090 Y178.533 E3.45327
G1 X146.066 Y178.830 E3.47209
G1 X145.218 Y179.640 E3.54614
G1 X144.179 Y179.651 E3.61177
G1 X143.299 Y178.790 E3.68953
G1 X143.298 Y175.402 E3.90349
G1 X144.163 Y174.533 E3.98095
G1 X145.155 Y174.547 E4.04361
G1 X145.663 Y174.297 F7800.000
G1 X134.710 Y175.367 F7800.000
G1 X134.710 Y178.671 E4.25226 F1800.000
G1 X133.838 Y179.514 E4.32885
G1 X132.812 Y179.520 E4.39362
G1 X131.950 Y178.728 E4.46753
G1 X131.918 Y178.436 E4.48609
G1 X126.681 Y178.414 E4.81679
G1 X126.651 Y178.714 E4.83580
G1 X125.821 Y179.510 E4.90845
G1 X124.759 Y179.518 E4.97549
G1 X123.887 Y178.675 E5.05207
G1 X123.899 Y175.237 E5.26916
G1 X124.760 Y174.430 E5.34363
G1 X125.829 Y174.423 E5.41117
G1 X126.675 Y175.269 E5.48670
G1 X126.686 Y175.647 E5.51061
G1 X131.907 Y175.649 E5.84029
G1 X131.932 Y175.266 E5.86455
G1 X132.676 Y174.526 E5.93079
G1 X132.903 Y174.417 E5.94673 F1800.000
G1 X133.826 Y174.418 E6.00499
G1 X134.575 Y175.134 E6.07038
G1 X134.672 Y175.302 E6.08267
G1 X135.180 Y175.537 F7800.000
G1 E4.08267 F2400.00000
G92 E0
G1 X131.470 Y178.926 F7800.000
G1 X129.791 Y183.099 F7800.000
G1 X128.574 Y181.846 F7800.000
G1 X128.091 Y181.421 F7800.000
G1 X125.640 Y181.421 F7800.000
G1 X124.754 Y180.773 F7800.000
G1 E2.00000 F2400.00000
G1 X125.141 Y181.541 E2.05431 F1800.000
G1 X125.137 Y182.515 E2.11579
G1 X124.741 Y183.318 E2.17234
G1 X124.208 Y183.807 E2.21798
G1 X123.458 Y184.157 E2.27031
G1 X122.462 Y184.167 E2.33317
G1 X121.641 Y183.764 E2.39097
G1 X121.179 Y183.336 E2.43073
G1 X120.767 Y182.517 E2.48857
G1 X120.761 Y181.527 E2.55111
G1 X121.167 Y180.743 E2.60682
G1 X121.621 Y180.308 E2.64657
G1 X122.447 Y179.904 E2.70462
G1 X123.135 Y179.902 E2.74809
G1 X123.447 Y179.901 E2.76782 F1800.000
G1 X123.737 Y180.049 E2.78835
G1 X124.386 Y180.412 E2.83527
G1 X124.700 Y180.720 E2.86311
G1 X125.253 Y180.747 F7800.000
G1 E0.86311 F2400.00000
G92 E0
G1 X124.575 Y173.918 F7800.000
G1 X121.081 Y164.871 F7800.000
G1 X120.276 Y139.138 F7800.000
G1 X118.163 Y132.042 F7800.000
G1 X124.903 Y73.315 F7800.000
G1 X126.245 Y66.562 F7800.000
G1 X131.262 Y65.651 F7800.000
G1 X133.700 Y61.843 F7800.000
G1 X132.856 Y42.708 F7800.000
G1 X134.406 Y33.550 F7800.000
G1 X137.365 Y28.597 F7800.000
G1 X140.362 Y27.111 F7800.000
G1 X142.378 Y27.717 F7800.000
G1 X143.201 Y28.284 F7800.000
G1 X146.002 Y25.449 F7800.000
G1 X146.216 Y24.956 F7800.000
G1 E2.00000 F2400.00000
G1 X145.354 Y24.107 E2.07638 F1800.000
G1 X145.370 Y20.704 E2.29127
G1 X146.218 Y19.888 E2.36559
G1 X147.266 Y19.871 E2.43181
G1 X148.142 Y20.687 E2.50740
G1 X148.167 Y21.086 E2.53265
G1 X153.383 Y21.093 E2.86203
G1 X153.403 Y20.698 E2.88702
G1 X154.267 Y19.877 E2.96226
G1 X154.946 Y19.873 E3.00514
G1 X155.310 Y19.871 E3.02813 F1800.000
G1 X156.176 Y20.691 E3.10343
G1 X156.198 Y23.848 E3.30280
G1 X156.083 Y24.242 E3.32871
G1 X155.302 Y24.964 E3.39586
G1 X154.265 Y24.971 E3.46135
G1 X153.419 Y24.150 E3.53578
G1 X153.383 Y23.870 E3.55362
G1 X148.671 Y23.862 E3.85114
G1 X148.163 Y23.873 E3.88325
G1 X148.154 Y24.056 E3.89480
G1 X147.990 Y24.310 E3.91389
G1 X147.267 Y24.973 E3.97584
G1 X146.291 Y24.957 E4.03747
G1 X145.783 Y25.206 F7800.000
G1 E2.03747 F2400.00000
G92 E0
G1 X149.281 Y20.584 F7800.000
G1 X151.311 Y17.586 F7800.000
G1 X153.310 Y18.576 F7800.000
G1 X153.981 Y18.774 F7800.000
G1 X154.522 Y18.488 F7800.000
G1 X155.221 Y18.764 F7800.000
G1 E2.00000 F2400.00000
G1 X154.806 Y17.962 E2.05705 F1800.000
G1 X154.829 Y17.100 E2.11146
G1 X155.209 Y16.300 E2.16743
G1 X155.681 Y15.866 E2.20790
G1 X156.505 Y15.477 E2.26542
G1 X156.774 Y15.477 E2.28241
G1 X157.375 Y15.473 E2.32036 F1800.000
G1 X158.165 Y15.858 E2.37588
G1 X158.629 Y16.297 E2.41619
G1 X159.054 Y17.154 E2.47660
G1 X159.042 Y18.026 E2.53167
G1 X158.669 Y18.731 E2.58204
G1 X158.215 Y19.199 E2.62322
G1 X157.371 Y19.610 E2.68248
G1 X156.434 Y19.601 E2.74167
G1 X155.627 Y19.188 E2.79893
G1 X155.273 Y18.819 E2.83127
G1 X154.721 Y18.789 F7800.000
G1 E0.83127 F2400.00000
G92 E0
G1 X154.064 Y25.462 F7800.000
G1 X158.277 Y32.034 F7800.000
G1 X161.585 Y70.192 F7800.000
G1 X154.197 Y127.499 F7800.000
G1 X153.074 Y134.266 F7800.000
G1 X149.686 Y136.108 F7800.000
G1 X142.211 Y133.760 F7800.000
G1 X140.879 Y133.422 F7800.000
G1 X140.398 Y133.315 F7800.000
G1 X140.003 Y134.150 F7800.000
G1 X140.090 Y133.756 F7800.000
G1 E2.00000 F2400.00000
G1 X141.486 Y134.416 E2.09752 F1800.000
G1 X145.280 Y138.085 E2.43080
G1 X145.957 Y139.431 E2.52593
G1 X145.956 Y141.631 E2.66482
G1 X144.966 Y144.245 E2.84136
G1 X144.402 Y145.471 E2.92655
G1 X144.343 Y145.905 E2.95422
G1 X144.033 Y146.461 E2.99444
G1 X144.038 Y162.579 E4.01221
G1 X144.347 Y163.156 E4.05355
G1 X144.399 Y163.561 E4.07934
G1 X144.943 Y164.754 E4.16211
G1 X145.150 Y165.316 E4.19995
G1 X145.324 Y165.678 E4.22530
G1 X145.952 Y167.382 E4.33997
G1 X145.955 Y169.717 E4.48743
G1 X145.557 Y170.368 E4.53559
G1 X145.292 Y170.951 E4.57606
G1 X141.497 Y174.626 E4.90964
G1 X140.081 Y175.295 E5.00853
G1 X138.441 Y175.291 E5.11205
G1 X137.049 Y174.637 E5.20921
G1 X133.084 Y170.794 E5.55790
G1 X133.020 Y170.495 E5.57717
G1 X132.568 Y169.683 E5.63590
G1 X132.573 Y167.385 E5.78099
G1 X134.132 Y163.531 E6.04349
G1 X134.171 Y163.188 E6.06528
G1 X134.493 Y162.569 E6.10933
G1 X134.498 Y150.774 E6.85418
G1 X134.497 Y146.692 E7.11192
G1 X134.478 Y146.447 E7.12741
G1 X134.208 Y145.954 E7.16294
G1 X134.137 Y145.517 E7.19091
G1 X133.792 Y144.815 E7.24026
G1 X133.552 Y144.237 E7.27977
G1 X132.572 Y141.653 E7.45435
G1 X132.568 Y139.409 E7.59603
G1 X133.268 Y138.058 E7.69214
G1 X137.027 Y134.445 E8.02131
G1 X138.360 Y133.776 E8.11551
G1 X138.951 Y133.768 E8.15288
G1 X140.015 Y133.757 E8.22003 F1800.000
G1 X139.894 Y134.651 F7800.000
G1 X140.971 Y135.160 E8.29527 F1800.000
G1 X144.550 Y138.622 E8.60969
G1 X145.064 Y139.643 E8.68187
G1 X145.063 Y141.467 E8.79706
G1 X144.142 Y143.900 E8.96134
G1 X143.535 Y145.219 E9.05300
G1 X143.481 Y145.618 E9.07842
G1 X143.140 Y146.229 E9.12265
G1 X143.145 Y162.804 E10.16923
G1 X143.482 Y163.432 E10.21426
G1 X143.530 Y163.808 E10.23818
G1 X144.117 Y165.094 E10.32747
G1 X144.327 Y165.664 E10.36584
G1 X144.501 Y166.026 E10.39117
G1 X145.059 Y167.542 E10.49318
G1 X145.062 Y169.466 E10.61471
G1 X144.767 Y169.949 E10.65040
G1 X144.549 Y170.428 E10.68363
G1 X140.982 Y173.882 E10.99718
G1 X139.881 Y174.401 E11.07405
G1 X138.641 Y174.399 E11.15234
G1 X137.563 Y173.892 E11.22757
G1 X133.900 Y170.342 E11.54966
G1 X133.866 Y170.178 E11.56025
G1 X133.461 Y169.452 E11.61277
G1 X133.465 Y167.559 E11.73229
G1 X135.002 Y163.774 E11.99023
G1 X135.039 Y163.454 E12.01057
G1 X135.386 Y162.788 E12.05800
G1 X135.390 Y150.774 E12.81664
G1 X135.389 Y146.659 E13.07650
G1 X135.354 Y146.188 E13.10629
G1 X135.065 Y145.660 E13.14432
G1 X134.997 Y145.242 E13.17102
G1 X134.606 Y144.447 E13.22700
G1 X134.382 Y143.908 E13.26384
G1 X133.464 Y141.488 E13.42728
G1 X133.461 Y139.626 E13.54487
G1 X133.993 Y138.599 E13.61790
G1 X137.548 Y135.182 E13.92925
G1 X138.576 Y134.666 E14.00192
G1 X138.962 Y134.661 E14.02626
G1 X139.819 Y134.652 E14.08039 F1800.000
G1 X140.258 Y134.308 F7800.000
G1 E12.08039 F2400.00000
G92 E0
G1 X134.566 Y137.351 F7800.000
G1 X130.161 Y136.957 F7800.000
G1 X130.333 Y138.479 F7800.000
G1 X130.484 Y139.504 F7800.000
G1 X130.511 Y139.614 F7800.000
G1 X130.615 Y140.161 F7800.000
G1 X129.472 Y140.142 F7800.000
G1 E2.00000 F2400.00000
G1 X129.633 Y140.447 E2.02182 F1800.000
G1 X129.629 Y169.248 E3.84045
G1 X128.915 Y170.646 E3.93959
G1 X128.068 Y171.427 E4.01232
G1 X126.750 Y172.058 E4.10461
G1 X124.973 Y172.056 E4.21684
G1 X123.567 Y171.353 E4.31610
G1 X122.810 Y170.609 E4.38309
G1 X122.110 Y169.272 E4.47842
G1 X122.109 Y140.403 E6.30138
G1 X122.890 Y138.953 E6.40537
G1 X123.731 Y138.216 E6.47595
G1 X124.991 Y137.621 E6.56396
G1 X125.663 Y137.615 E6.60641
G1 X126.711 Y137.606 E6.67258 F1800.000
G1 X128.078 Y138.252 E6.76800
G1 X128.876 Y139.009 E6.83748
G1 X129.437 Y140.075 E6.91356
G1 X128.682 Y140.558 F7800.000
G1 X128.740 Y140.668 E6.92143 F1800.000
G1 X128.737 Y169.033 E8.71256
G1 X128.193 Y170.098 E8.78806
G1 X127.562 Y170.680 E8.84225
G1 X126.548 Y171.165 E8.91324
G1 X125.184 Y171.164 E8.99937
G1 X124.092 Y170.618 E9.07644
G1 X123.536 Y170.071 E9.12568
G1 X123.003 Y169.052 E9.19830
G1 X123.002 Y140.628 E10.99317
G1 X123.600 Y139.518 E11.07279
G1 X124.225 Y138.970 E11.12529
G1 X125.195 Y138.512 E11.19300
G1 X125.671 Y138.508 E11.22308
G1 X126.515 Y138.501 E11.27636 F1800.000
G1 X127.567 Y138.998 E11.34982
G1 X128.154 Y139.556 E11.40098
G1 X128.647 Y140.492 E11.46778
G1 X127.848 Y140.889 F7800.000
G1 X127.844 Y168.818 E13.23140 F1800.000
G1 X127.470 Y169.550 E13.28327
G1 X127.055 Y169.932 E13.31891
G1 X126.346 Y170.272 E13.36860
G1 X125.395 Y170.271 E13.42863
G1 X124.617 Y169.882 E13.48352
G1 X124.262 Y169.533 E13.51500
G1 X123.895 Y168.833 E13.56491
G1 X123.894 Y140.853 E15.33169
G1 X124.310 Y140.083 E15.38693
G1 X124.719 Y139.723 E15.42135
G1 X125.398 Y139.403 E15.46877
G1 X125.679 Y139.401 E15.48648
G1 X126.318 Y139.395 E15.52685 F1800.000
G1 X127.056 Y139.744 E15.57838
G1 X127.433 Y140.102 E15.61120
G1 X127.813 Y140.822 E15.66265
G1 X128.315 Y141.066 F7800.000
G1 X125.929 Y131.109 F7800.000
G1 X126.397 Y131.822 E15.71650 F1800.000
G1 X127.210 Y132.587 E15.78701
G1 X128.466 Y133.303 E15.87829
G1 X128.904 Y133.372 E15.90631
G1 X129.464 Y133.674 E15.94643
G1 X136.540 Y133.675 E16.39327
G1 X132.544 Y137.516 E16.74328
G1 X131.675 Y139.192 E16.86250
G1 X131.679 Y141.817 E17.02825
G1 X132.723 Y144.567 E17.21398
G1 X132.979 Y145.184 E17.25615
G1 X133.277 Y145.791 E17.29888
G1 X133.351 Y146.248 E17.32812
G1 X133.604 Y146.709 E17.36133
G1 X133.605 Y150.774 E17.61797
G1 X133.601 Y162.351 E18.34903
G1 X133.303 Y162.922 E18.38970
G1 X133.261 Y163.287 E18.41285
G1 X131.681 Y167.211 E18.68000
G1 X131.674 Y169.914 E18.85066
G1 X132.175 Y170.812 E18.91559
G1 X132.267 Y171.245 E18.94356
G1 X133.698 Y172.632 E19.06942
G1 X132.500 Y172.632 E19.14506
G1 X131.633 Y173.045 E19.20572
G1 X130.810 Y173.863 E19.27898
G1 X127.793 Y173.862 E19.46948
G1 X126.564 Y172.632 E19.57929
G1 X124.048 Y172.650 E19.73813
G1 X122.117 Y174.461 E19.90535
G1 X122.104 Y178.083 E20.13409
G1 X121.103 Y178.574 E20.20449
G1 X121.071 Y177.103 E20.29739
G1 X120.967 Y176.958 E20.30868
G1 X120.961 Y175.709 E20.38751
G1 X120.849 Y175.489 E20.40309
G1 X120.814 Y174.381 E20.47306
G1 X120.708 Y174.144 E20.48949
G1 X120.700 Y172.782 E20.57548
G1 X120.581 Y172.518 E20.59379
G1 X120.556 Y171.096 E20.68357
G1 X120.451 Y170.918 E20.69663
G1 X120.442 Y169.577 E20.78133
G1 X120.331 Y169.399 E20.79457
G1 X120.305 Y167.838 E20.89315
G1 X120.198 Y167.662 E20.90614
G1 X120.179 Y166.175 E21.00005
G1 X120.073 Y165.979 E21.01412
G1 X120.047 Y164.614 E21.10033
G1 X119.932 Y164.370 E21.11740
G1 X119.918 Y162.733 E21.22076
G1 X119.801 Y162.534 E21.23533
G1 X119.785 Y161.015 E21.33123
G1 X119.649 Y160.813 E21.34663
G1 X119.629 Y160.529 E21.36460
G1 X119.656 Y160.450 E21.36986
G1 X119.684 Y159.046 E21.45853
G1 X119.561 Y158.831 E21.47416
G1 X119.533 Y157.573 E21.55360
G1 X119.424 Y157.363 E21.56858
G1 X119.395 Y155.994 E21.65502
G1 X119.290 Y155.768 E21.67076
